X:1
T: Johnnie's made a Wedding o't
C:
R:Reel
Q: 232
K:G
M:4/4
L:1/8
|:c|BG dG BG GB|A=F cF AF FA|BG dG BG Gg|eg dg BG Gc|
BG dG BG GB|A=F cF AF FA|BG dG BG Gg|eg dg BG Gg|
bg af gd de|=fd c_B A=F Fg|b1/2a1/2g a1/2g1/2f gd dg|eg fa gG Gg|
bg af gd de|=fd c_B A=F Fg|GB Ac Bd ce|dg fa gG G:|
